X: 63
T:Lad O'Beirne's
R:reel
B:Mel Bay's complete Irish Fiddler
M:C|
L:1/8
Q:1/2=112
K:G
GE|D~G3 DGBG|AcBG A~E3|(D~G3) DGB(d|eg)ed edge|
d~B3 dBAB|c~E3 GED(B,|DE)GA ~B3(c| dB)Ac BG:|
G(A|:Bd)d(B d2)e(f|g2)bg abge|d~B3 dBAB|c~E3 GED(c|
Bd}d(B d2)e(f|g2)a(f {a}ge)d2|DEG(A B3)(c|d)BAd BG:|
